images/svg/css3.svg

<svg xmlns="http://www.w3.org/2000/svg"
aria-label="HTML5" role="img"
viewBox="0 0 512 512">
<path fill="#264de4" d="M72 460L30 0h451l-41 460-184 52"/>
<path fill="#2965f1" d="M256 37V472l149-41 35-394"/>
<path fill="#ebebeb" d="m114 94h142v56H119m5 58h132v57H129m3 28h56l4 45 64 17v59L139 382"/>
<path fill="#fff" d="m256 208v57h69l-7 73-62 17v59l115-32 26-288H256v56h80l-5.5 58Z"/></svg>

<svg xmlns="http://www.w3.org/2000/svg"
aria-label="HTML5" role="img"
viewBox="0 0 512 512">
<path fill="#264de4" d="M71 460L30 0h451l-41 460-185 52"/>
<path fill="#2965f1" d="M256 472l149-41 35-394H256"/>
<path fill="#ebebeb" d="M256 208H124L129 265H256ZM256 150V94H114L119 150ZZM256 355 192 338 188 293H132L139 382 256 414Z"/>
<path fill="#fff" d="M256 208V265H325L318 338 256 355V414L371 382 397 94H256V150H336L330.5 208Z"/></svg>
